icons/trashcan-16.svg

<svg width="16" height="16" viewBox="0 0 16 16" xmlns="http://www.w3.org/2000/svg">
  <path fill-rule="evenodd" clip-rule="evenodd" d="M6.5 1.75C6.5 1.61193 6.61193 1.5 6.75 1.5H9.25C9.38807 1.5 9.5 1.61193 9.5 1.75V3H6.5V1.75ZM11 1.75V3H13.25C13.6642 3 14 3.33579 14 3.75C14 4.16421 13.6642 4.5 13.25 4.5H2.75C2.33579 4.5 2 4.16421 2 3.75C2 3.33579 2.33579 3 2.75 3H5V1.75C5 0.783502 5.7835 0 6.75 0H9.25C10.2165 0 11 0.783502 11 1.75ZM4.49627 6.67537C4.45506 6.26321 4.08753 5.9625 3.67537 6.00372C3.26321 6.04493 2.9625 6.41247 3.00372 6.82462L3.66367 13.4241C3.75313 14.3187 4.50592 15 5.40498 15H10.595C11.4941 15 12.2469 14.3187 12.3363 13.4241L12.9963 6.82462C13.0375 6.41247 12.7368 6.04493 12.3246 6.00372C11.9125 5.9625 11.5449 6.26321 11.5037 6.67537L10.8438 13.2749C10.831 13.4027 10.7234 13.5 10.595 13.5H5.40498C5.27655 13.5 5.169 13.4027 5.15622 13.2749L4.49627 6.67537Z"/>
</svg>

<svg xmlns="http://www.w3.org/2000/svg" width="16" height="16" viewBox="0 0 16 16"><path fill-rule="evenodd" d="M6.5 1.75a.25.25 0 01.25-.25h2.5a.25.25 0 01.25.25V3h-3V1.75zm4.5 0V3h2.25a.75.75 0 010 1.5H2.75a.75.75 0 010-1.5H5V1.75C5 .784 5.784 0 6.75 0h2.5C10.216 0 11 .784 11 1.75zM4.496 6.675a.75.75 0 10-1.492.15l.66 6.6A1.75 1.75 0 005.405 15h5.19c.9 0 1.652-.681 1.741-1.576l.66-6.6a.75.75 0 00-1.492-.149l-.66 6.6a.25.25 0 01-.249.225h-5.19a.25.25 0 01-.249-.225l-.66-6.6z"/></svg>
